X: 184
T: Dan Hughie MacEachern's
T: Jig, G
C: John Moris Rankin
L: 1/16
M: 6/8
K: G
|: D2| G4c2 B2d2g2| e2d2e2 g4d2| e2g2e2 e2d2B2| g2f2g2 a2g2f2| G4c2 B2d2g2| e2d2e2 g4d2| e2g2e2 d2B2G2| A2B2A2 G4:| 
f2| g2f2g2 a2b2a2| g2f2g2 d4g2| e2g2e2 d2e2g2| B2A2G2 A4f2| g2f2g2 a2b2a2| g2f2g2 d4g2| e2g2e2 d2B2G2| A2B2A2 G4f2| 
g2f2g2 a2b2a2| g2f2g2 d4g2| e2g2e2 d2e2g2| B2A2G2 A4D2| G4c2 B2d2g2| e2d2e2 g4d2| e2g2e2 d2B2G2| A2B2A2 G4|| 
D: Jackie Dunn, Dunn to a "T", JAD-1
